_includes/icons/color-people.svg

<svg fill="#666" height="50" viewBox="0 0 48 48" width="50" xmlns="http://www.w3.org/2000/svg"><path d="m17 21c0 2.761719-2.238281 5-5 5s-5-2.238281-5-5 2.238281-5 5-5 5 2.238281 5 5z" fill="#ffa726"/><path d="m2 34.699219s2.800781-6.300781 10-6.300781 10 6.300781 10 6.300781v3.300781h-20z" fill="#455a64"/><path d="m46 34.699219s-2.800781-6.300781-10-6.300781-10 6.300781-10 6.300781v3.300781h20z" fill="#455a64"/><path d="m30 17c0 3.3125-2.6875 6-6 6s-6-2.6875-6-6 2.6875-6 6-6 6 2.6875 6 6z" fill="#ffb74d"/><path d="m36 34.101563s-3.300781-7.5-12-7.5-12 7.5-12 7.5v3.898437h24z" fill="#607d8b"/><g fill="#ffa726"><path d="m41 21c0 2.761719-2.238281 5-5 5s-5-2.238281-5-5 2.238281-5 5-5 5 2.238281 5 5z"/><path d="m17 21c0 2.761719-2.238281 5-5 5s-5-2.238281-5-5 2.238281-5 5-5 5 2.238281 5 5z"/><path d="m41 21c0 2.761719-2.238281 5-5 5s-5-2.238281-5-5 2.238281-5 5-5 5 2.238281 5 5z"/></g></svg>

<svg xmlns="http://www.w3.org/2000/svg" viewBox="0 0 48 48" width="50" height="50" fill="#666"><path d="M 17 21 C 17 23.761719 14.761719 26 12 26 C 9.238281 26 7 23.761719 7 21 C 7 18.238281 9.238281 16 12 16 C 14.761719 16 17 18.238281 17 21 Z" fill="#ffa726"/><path d="M 2 34.699219 C 2 34.699219 4.800781 28.398438 12 28.398438 C 19.199219 28.398438 22 34.699219 22 34.699219 L 22 38 L 2 38 Z" fill="#455a64"/><path d="M 46 34.699219 C 46 34.699219 43.199219 28.398438 36 28.398438 C 28.800781 28.398438 26 34.699219 26 34.699219 L 26 38 L 46 38 Z" fill="#455a64"/><path d="M 30 17 C 30 20.3125 27.3125 23 24 23 C 20.6875 23 18 20.3125 18 17 C 18 13.6875 20.6875 11 24 11 C 27.3125 11 30 13.6875 30 17 Z" fill="#ffb74d"/><path d="M 36 34.101563 C 36 34.101563 32.699219 26.601563 24 26.601563 C 15.300781 26.601563 12 34.101563 12 34.101563 L 12 38 L 36 38 Z" fill="#607d8b"/><path d="M 41 21 C 41 23.761719 38.761719 26 36 26 C 33.238281 26 31 23.761719 31 21 C 31 18.238281 33.238281 16 36 16 C 38.761719 16 41 18.238281 41 21 Z" fill="#ffa726"/><path d="M 17 21 C 17 23.761719 14.761719 26 12 26 C 9.238281 26 7 23.761719 7 21 C 7 18.238281 9.238281 16 12 16 C 14.761719 16 17 18.238281 17 21 Z" fill="#ffa726"/><path d="M 41 21 C 41 23.761719 38.761719 26 36 26 C 33.238281 26 31 23.761719 31 21 C 31 18.238281 33.238281 16 36 16 C 38.761719 16 41 18.238281 41 21 Z" fill="#ffa726"/></svg>
